assets/images/ico_file.svg

<svg width="57" height="79" viewBox="0 0 57 79" fill="none" xmlns="http://www.w3.org/2000/svg">
<path d="M18.1657 18.1666H3.63281L18.1657 3.63379V18.1666Z" fill="black"/>
<path d="M23.0742 57.9336C26.4925 56.6049 30.2095 55.4491 33.7005 54.6275C31.4901 52.0624 29.2876 48.8589 27.4461 45.5591C26.2769 49.6055 24.7316 53.9742 23.0742 57.9336Z" fill="black"/>
<path d="M26.6148 31.6738C26.5776 31.6809 26.5271 31.6904 26.456 31.7157C26.2972 31.7694 26.17 31.8571 26.057 32.1139C25.6368 33.099 25.9693 34.9697 26.6156 36.9771C27.148 33.5145 26.8636 32.0428 26.6148 31.6738Z" fill="black"/>
<path d="M21.7993 0V21.7993H0V79H56.673V0H21.7993ZM46.4196 58.7499C45.5048 60.0258 44.2534 60.6989 42.7856 60.6989C40.7948 60.6989 38.4825 59.442 35.8952 56.9606C31.2548 57.9315 25.8338 59.6624 21.4548 61.5797C20.0858 64.4798 18.7743 66.819 17.557 68.5309C15.8798 70.8835 14.4373 71.9785 13.0042 71.9785C12.437 71.9785 11.8887 71.7952 11.4218 71.4452C9.71779 70.1686 9.4879 68.7458 9.59534 67.7773C9.89317 65.1118 13.189 62.3278 19.3898 59.4862C21.849 54.0953 24.1914 47.4498 25.5857 41.8992C23.9528 38.3466 22.3657 33.7354 23.5223 31.0312C23.9283 30.0848 24.6417 29.4172 25.5802 29.102C25.957 28.9772 26.322 28.914 26.6665 28.914C27.4936 28.914 28.2299 29.2758 28.7426 29.9284C29.2245 30.5446 30.6812 32.3979 28.4914 41.6061C30.6986 46.1613 33.8215 50.7994 36.814 53.9775C38.9612 53.5857 40.8043 53.3906 42.3077 53.3906C44.8728 53.3906 46.4228 53.9902 47.0587 55.217C47.5833 56.2346 47.3684 57.4243 46.4196 58.7499Z" fill="black"/>
<path d="M12.3354 68.082C12.3204 68.2306 12.2737 68.6271 13.0393 69.2141C13.2842 69.1383 14.7069 68.4889 17.3598 63.5933C13.8609 65.558 12.4381 67.172 12.3354 68.082Z" fill="black"/>
<path d="M39.4023 56.3619C40.7367 57.3833 41.9161 57.9466 42.7859 57.9466C43.1722 57.9466 43.6739 57.8557 44.1803 57.1487C44.4252 56.809 44.5176 56.5886 44.5516 56.4717C44.3564 56.3666 43.7671 56.147 42.3095 56.147C41.4832 56.1462 40.5028 56.2173 39.4023 56.3619Z" fill="black"/>
</svg>

<svg width="57" height="79" fill="none" xmlns="http://www.w3.org/2000/svg"><path d="M18.166 18.167H3.633L18.166 3.634v14.533zm4.908 39.767A81.71 81.71 0 0133.7 54.628c-2.21-2.566-4.412-5.77-6.254-9.069a117.429 117.429 0 01-4.372 12.375zm3.541-26.26c-.037.007-.088.016-.159.042-.159.053-.286.141-.399.398-.42.985-.088 2.856.559 4.863.532-3.462.248-4.934-.001-5.303z" fill="#000"/><path d="M21.8 0v21.8H0V79h56.673V0H21.799zm24.62 58.75c-.915 1.276-2.167 1.949-3.634 1.949-1.991 0-4.303-1.257-6.89-3.738-4.641.97-10.062 2.701-14.441 4.619-1.37 2.9-2.68 5.239-3.898 6.95-1.677 2.353-3.12 3.448-4.553 3.448a2.624 2.624 0 01-1.582-.533c-1.704-1.276-1.934-2.7-1.827-3.668.298-2.665 3.594-5.45 9.795-8.29 2.459-5.392 4.801-12.037 6.196-17.588-1.633-3.552-3.22-8.164-2.064-10.868.406-.946 1.12-1.614 2.058-1.929a3.467 3.467 0 011.087-.188c.827 0 1.563.362 2.076 1.014.482.617 1.938 2.47-.252 11.678 2.208 4.555 5.33 9.193 8.323 12.371 2.147-.391 3.99-.586 5.494-.586 2.565 0 4.115.6 4.75 1.826.525 1.018.31 2.207-.638 3.533z" fill="#000"/><path d="M12.335 68.082c-.015.149-.061.545.704 1.132.245-.076 1.668-.725 4.32-5.62-3.498 1.964-4.92 3.578-5.024 4.488zm27.067-11.72c1.335 1.021 2.514 1.585 3.384 1.585.386 0 .888-.091 1.394-.798.245-.34.338-.56.372-.677-.196-.105-.785-.325-2.242-.325-.827 0-1.807.07-2.908.215z" fill="#000"/></svg>
